assets/icons/tram/tram_T2_carto_RVB.svg

<svg id="tram_T2_carto_RVB" xmlns="http://www.w3.org/2000/svg" width="311.7" height="311.8" viewBox="0 0 311.7 311.8">
	<path id="Tracé_19" data-name="Tracé 19" d="M28.3,311.8A28.338,28.338,0,0,1,0,283.5V28.3A28.338,28.338,0,0,1,28.3,0H283.4a28.338,28.338,0,0,1,28.3,28.3V283.4a28.338,28.338,0,0,1-28.3,28.3H28.3Z" fill="#fff"/>
	<path id="Tracé_20" data-name="Tracé 20" d="M120.1,122.3v89.6H96V122.3H62.4V102.7h91.3v19.6H120.1Zm58.5,89.6V197.5c2.8-12.7,15.3-24.3,29.8-37,7.3-6.3,15.2-14.2,15.2-24.8,0-9.4-6.2-17.3-18.1-17.3-9.6,0-16.2,7-18.9,9.9l-11.4-15.2c10.5-9.1,20.3-13.5,35-13.5,19.2,0,37.3,11.1,37.3,33.4,0,18.7-11.9,27.5-25.1,39.4-5.6,5.1-16.5,14.7-17.9,21h45v18.3H178.6Z"/>
	<path id="Tracé_21" data-name="Tracé 21" d="M283.5,57.4H28.3A14.19,14.19,0,0,1,14.1,43.2V29.1A14.19,14.19,0,0,1,28.3,14.9H283.4a14.19,14.19,0,0,1,14.2,14.2V43.3a14.084,14.084,0,0,1-14.1,14.1m14.1,226.8V270a14.19,14.19,0,0,0-14.2-14.2H28.3A14.19,14.19,0,0,0,14.1,270v14.2a14.19,14.19,0,0,0,14.2,14.2H283.4a14.19,14.19,0,0,0,14.2-14.2" fill="#a0006e"/>
</svg>

<?xml version="1.0" encoding="utf-8"?>
<!-- Generator: Adobe Illustrator 26.3.1, SVG Export Plug-In . SVG Version: 6.00 Build 0)  -->
<svg version="1.1" id="Layer_1" xmlns="http://www.w3.org/2000/svg" xmlns:xlink="http://www.w3.org/1999/xlink" x="0px" y="0px"
	 viewBox="0 0 311.8 311.8" style="enable-background:new 0 0 311.8 311.8;" xml:space="preserve">
<style type="text/css">
	.st0{fill:#FFFFFF;}
	.st1{fill:#A0006E;}
</style>
<g>
	<path class="st0" d="M28.3,311.8C12.7,311.8,0,299.1,0,283.5V28.3C0,12.7,12.7,0,28.3,0h255.1c15.6,0,28.3,12.7,28.3,28.3v255.1
		c0,15.6-12.7,28.3-28.3,28.3H28.3z"/>
	<path d="M120.1,122.3v89.6H96v-89.6H62.4v-19.6h91.3v19.6H120.1z M178.6,211.9v-14.4c2.8-12.7,15.3-24.3,29.8-37
		c7.3-6.3,15.2-14.2,15.2-24.8c0-9.4-6.2-17.3-18.1-17.3c-9.6,0-16.2,7-18.9,9.9l-11.4-15.2c10.5-9.1,20.3-13.5,35-13.5
		c19.2,0,37.3,11.1,37.3,33.4c0,18.7-11.9,27.5-25.1,39.4c-5.6,5.1-16.5,14.7-17.9,21h45v18.3H178.6z"/>
	<path class="st1" d="M283.5,57.4H28.3c-7.8,0-14.2-6.3-14.2-14.2V29.1c0-7.8,6.3-14.2,14.2-14.2h255.1c7.8,0,14.2,6.3,14.2,14.2
		v14.2C297.6,51.1,291.3,57.4,283.5,57.4 M297.6,284.2V270c0-7.8-6.3-14.2-14.2-14.2H28.3c-7.8,0-14.2,6.3-14.2,14.2v14.2
		c0,7.8,6.3,14.2,14.2,14.2h255.1C291.3,298.4,297.6,292,297.6,284.2"/>
</g>
</svg>
